X:15903
T:Stack of Barley, The
R:hornpipe
H:Also played in A, see #98
D:Kevin Burke: Up Close
Z:id:hn-hornpipe-14
M:C|
K:G
gf|efed B2dB|AGEG AcBA|GFGA BG (3Bcd|egdB A2Bd|
(3efg ed B2dB|AGEG AcBA|GFGA (3Bcd Ac|B2G2 G2:|
|:GA|BG (3Bcd g2fg|agfg edBd|g2fg edBd|(3efg dB A2GA|
(3Bcd ef g2fe|dBAG AcBA|GFGA (3Bcd Ac|B2G2 G2:|
